Adwaita++/places/symbolic/folder-symbolic.svg

<svg height="16" width="16" xmlns="http://www.w3.org/2000/svg">
  <path d="m1 1a1 1 0 0 0 -1 1v11s-.014.459.23.947c.246.489.938 1.053 1.77 1.053h12s.459.014.947-.23c.489-.245 1.053-.937 1.053-1.77v-7h-13v7h-1v-7s0-1 1-1h11v-.832a1 1 0 0 0 -1-1.168h-4.586l-1.707-1.707a1 1 0 0 0 -.707-.293z" fill="#474747" fill-rule="evenodd"/>
</svg>

<svg xmlns="http://www.w3.org/2000/svg" width="16" height="16">
    <path d="M1 1a1 1 0 0 0-1 1v11s-.014.459.23.947C.476 14.436 1.168 15 2 15h12s.459.014.947-.23C15.436 14.525 16 13.833 16 13V6H3v7H2V6s0-1 1-1h11v-.832A1 1 0 0 0 13 3H8.414L6.707 1.293A1 1 0 0 0 6 1z" style="line-height:normal;font-variant-ligatures:normal;font-variant-position:normal;font-variant-caps:normal;font-variant-numeric:normal;font-variant-alternates:normal;font-feature-settings:normal;text-indent:0;text-align:start;text-decoration-line:none;text-decoration-style:solid;text-decoration-color:#000;text-transform:none;text-orientation:mixed;white-space:normal;shape-padding:0;isolation:auto;mix-blend-mode:normal;solid-color:#000;solid-opacity:1" color="#000" font-weight="400" font-family="sans-serif" overflow="visible" fill="#474747" fill-rule="evenodd"/>
</svg>
